X: 1
T:Wee Pat  "CYMRU"
M:C|
L:1/8
Q:80
C:
S:Hornpipe
K:HP
|: {g}e{g}d/2e/2{g}e/2A/2g/2f/2|
{g}e/2A/2{e}c/2d/2{gef}e2|
{Gdc}d{g}d/2e/2{g}B/2d/2{g}G/2{d}B/2|  !
{g}B/2d/2{c}d/2e/2{A}e/2g/2{a}B/2d/2| |
{g}e{g}d/2e/2{g}e/2A/2g/2f/2|
{g}e/2A/2{e}c/2d/2{gef}e{g}B/2d/2|  !
{g}e/2f/2{a}g/2f/2{g}e/2g/2G/2{d}B/2|
{g}A/2{d}A/2{e}A/2{g}G/2{g}A4:| |:
{g}e/2f/2{a}g/2e/2a/2f/2{a}g/2e/2|  !
{g}c/2d/2{g}G/2{d}B/2{gef}eg/2e/2|
{Gdc}d{g}d/2e/2{g}B/2d/2{g}G/2{d}B/2|
{g}B/2d/2{c}d/2e/2{A}e/2g/2{a}B/2d/2| |  !
{g}e/2f/2{a}g/2e/2a/2f/2{a}g/2e/2|
{g}c/2d/2{g}G/2{d}B/2{gef}e{g}B/2d/2|
{g}e/2f/2{a}g/2f/2{g}e/2g/2G/2{d}B/2|  !
{g}A/2{d}A/2{e}A/2{g}G/2{g}A4:| |:
{Gdc}d{g}d/2e/2{g}B/2d/2{g}G/2{d}B/2|
{g}B/2d/2{c}d/2e/2{g}e/2g/2B/2d/2|  !
e/2a/2{g}a/2g/2a/2g/2{a}e/2g/2|1
a{g}a|2 A/2{d}A/2{g}c/2e/2a/2g/2{a}e/2g/2| |
{Gdc}d{g}d/2e/2{g}B/2d/2{g}G/2{d}B/2|  !
{g}B/2d/2{c}d/2e/2{g}e/2g/2B/2d/2|
{g}e/2f/2{a}g/2f/2{g}e/2g/2G/2{d}B/2|
{g}A/2{d}A/2{e}A/2{g}G/2{g}A4:| |:  !
{g}A/2a/2{g}a/2A/2g/2A/2{g}f/2e/2|
{g}A/2a/2{g}a/2A/2g/2A/2{g}f/2e/2|
{g}G/2{d}G/2g/2f/2{g}e/2g/2B/2d/2|  !
{g}e/2g/2B/2d/2{g}e/2G/2{g}d/2B/2| |
{g}A/2a/2{g}a/2A/2g/2A/2{g}f/2e/2|
{g}A/2a/2{g}a/2g/2((3e/2f/2g/2)((3B/2c/2d/2)|  !
{g}e/2f/2{a}g/2f/2{g}e/2g/2G/2{d}B/2|
{g}A/2{d}A/2{e}A/2{g}G/2{g}A4:| |:
{g}A/2a/2{g}a/2A/2g/2A/2{g}f/2e/2|  !
{g}A/2a/2{g}a/2A/2g/2A/2{g}f/2e/2|
{g}G/2{d}G/2g/2f/2{g}e/2g/2B/2d/2|
{g}e2{A}e/2g/2{a}B/2d/2| |  !
{g}e/2d/2{c}d/2e/2{g}e/2A/2{gAGAG}A|
{g}e/2d/2{c}d/2e/2{g}e/2a/2g/2f/2|
{g}e/2g/2B/2d/2{g}e/2G/2{g}d/2B/2|  !
{g}A/2{d}A/2{e}A/2{g}G/2{g}A4:|
